X:710
L:1/16
M:2/4
K:E
 ee d2e2B2 | ee d2e2g2 | ee d2e2 (3EGB | eB Gz/E/ z G FE :| ee z e d2B2 | cc z c cBGB | 
 B,2C2E2>F2 | G>AG>F F>EC>B, | ee z e d2B2 | cc z c cBGB | B,2C2E2>F2 | GFEF E4 || E2D2 E2D2 | 
 E2D2 EG2G | E2D2 E2(3EGB | eBGE z F E2 | E2D2 E2D2 | E2D2 EG2G | E2D2 E2(3EGB | eBAF E2 z2 ||

